rospo-dark/16x16/actions/format-text-remove-formatting.svg

<svg height="16" viewBox="0 0 16 16" width="16" xmlns="http://www.w3.org/2000/svg"><path d="m2.3398438.9375-1.40625005 1.40625 4.69335935 4.6933594c-.76451.0884-1.4374594.4276306-1.8808593.9316406-.5144001.58479-.7563901 1.31065-.75 2.03125.0059999.72062.26893 1.45275.78125 2.03125.5123199.57854 1.31045.96875 2.21875.96875h5.5937502l2.0625 2.0625 1.40625-1.40625zm4.0625 2.0625 2 2h1.59375c.4281602 0 1.0000002.61414 1.0000002 1v1h-.59375l2.59375 2.59375v-3.59375c.00009-1.6343-1.3198-3-3.0000002-3zm-.40625 6h1.59375l2 2h-3.59375c-.3978701 0-.5669101-.10979-.71875-.28125-.15184-.17146-.2787701-.43937-.28125-.71875-.0020001-.27938.1046699-.55354.25-.71875.14533-.16521.3276399-.28125.75-.28125z" fill="#d3dae3"/></svg>

<?xml version="1.0" encoding="UTF-8" standalone="no"?>
<svg xmlns="http://www.w3.org/2000/svg" width="22" height="22" viewBox="0 0 22 22">
 <defs>
  <style type="text/css" id="current-color-scheme">
   .ColorScheme-Text { color:#d3dae3; } .ColorScheme-Highlight { color:#5294e2; }
  </style>
 </defs>
 <path style="fill:currentColor;opacity:1" class="ColorScheme-Text" transform="translate(3 3)" d="M 2.3398438 0.9375 L 0.93359375 2.34375 L 5.6269531 7.0371094 C 4.8624431 7.1255094 4.1894937 7.46474 3.7460938 7.96875 C 3.2316937 8.55354 2.9897037 9.2794 2.9960938 10 C 3.0020937 10.72062 3.2650238 11.45275 3.7773438 12.03125 C 4.2896637 12.60979 5.0877938 13 5.9960938 13 L 11.589844 13 L 13.652344 15.0625 L 15.058594 13.65625 L 2.3398438 0.9375 z M 6.4023438 3 L 8.4023438 5 L 9.9960938 5 C 10.424254 5 10.996094 5.61414 10.996094 6 L 10.996094 7 L 10.402344 7 L 12.996094 9.59375 L 12.996094 6 C 12.996184 4.3657 11.676294 3 9.9960938 3 L 6.4023438 3 z M 5.9960938 9 L 7.5898438 9 L 9.5898438 11 L 5.9960938 11 C 5.5982237 11 5.4291837 10.89021 5.2773438 10.71875 C 5.1255038 10.54729 4.9985737 10.27938 4.9960938 10 C 4.9940937 9.72062 5.1007637 9.44646 5.2460938 9.28125 C 5.3914238 9.11604 5.5737337 9 5.9960938 9 z"/>
</svg>
